!!!COM: Bach, Johann Sebastian
!!!CDT: 1685/3//-1750/7/28/
!!!OTL@@DE: Vater unser im Himmelreich
!!!OTL@EN: Our Father in Heaven
!!!AGN: 4-Part Chorale
!!!SCT: BH 110
!!!SCT: BWV 102
**harm	**root	**kern	**kern	**kern	**kern
!	!	!bass	!tenor	!alto	!soprno
*	*Iorgan	*Iorgan	*Iorgan	*Iorgan	*Iorgan
*M4/4	*M4/4	*M4/4	*M4/4	*M4/4	*M4/4
*met(c)	*met(c)	*met(c)	*met(c)	*met(c)	*met(c)
*MM60	*MM60	*MM60	*MM60	*MM60	*MM60
*k[f#c#g#]	*k[f#c#g#]	*k[f#c#g#]	*k[f#c#g#]	*k[f#c#g#]	*k[f#c#g#]
*f#:	*f#:	*f#:	*f#:	*f#:	*f#:
i	4CC	4F#	4f#	4a	4cc#
=1	=1	=1	=1	=1	=1
Vb	4GG	4E#	4c#	4g#	4cc#
i	4CC	4F#	4c#	4f#	4a
ivb	4FF	4d	4f#	8f#	4b
.	.	.	.	8g#	.
ib	8CC	8A	8f#	8a	8cc#
iiob	8DD	8B	8d	8g#	8b
=2	=2	=2	=2	=2	=2
ic	4CC	4c#	4c#	4f#	4a
V	4GG	4C#	8c#	4e#	4g#
.	.	.	8B	.	.
i;	4CC;	4F#;	4A;	4c#;	4f#;
i	4CC	4f#	4f#	4a	4cc#
=3	=3	=3	=3	=3	=3
iiib	4EE-	8c#	4e	4a	4cc#
.	.	8d	.	.	.
-VII	4BB-	4e	4e	8g#	4b
.	.	.	.	8a	.
-VIIb	4BB-	4G#	4e	4b	4ee
III	4EE-	4A	4e	8a	8cc#
.	.	.	.	8g#	8b
=4	=4	=4	=4	=4	=4
VI	4AA-	4d	4f#	8f#	4a
.	.	.	.	8e#	.
ivb	4FF	4D	4d	8f#	4b
.	.	.	.	8g#	.
V;	4GG;	4C#;	4G#;	4e#;	4cc#;
i	4CC	4F#	4f#	4a	8cc#
.	.	.	.	.	8dd#
=5	=5	=5	=5	=5	=5
v	4GG	4c#	4ey	4g#	4ee
iv7	4FF	4B	4d	8a	8ff#
.	.	.	.	8b	8gg#
ib	4CC	4A	4c#	4cc#	4aa
ii	8DD	8B	8d#	4b	4gg#
V7	8GG	8c#	8e#	.	.
=6	=6	=6	=6	=6	=6
VI	4AA-	4dy	4f#	8a	4ff#
.	.	.	.	8b	.
V	4GG	4c#	4g#	4cc#	4ee#
i;	4CC;	4F#;	4a;	4cc#;	4ff#;
IV	4FF	4B	4d#	4b	4ff#
!!linebreak: 2
=7	=7	=7	=7	=7	=7
-VII	4BB-	4e	4e	4b	4gg#
viib/V	4FF#	4d#	4f#	4b#	4ff#
V	4GG	4c#	4g#	4cc#	4ee
#viD7	8AA	8F#	8a	8cc#	4dd#
V/V	8DD	8G#	8g#	8b#	.
=8	=8	=8	=8	=8	=8
ib	4CC	4A	8g#	4cc#	4cc#
.	.	.	8f#	.	.
V7/V	4DD	4G#	8f#	4b#	4dd#
.	.	.	8e#	.	.
V;	4GG;	4C#;	4e#;	4g#;	4cc#;
IV	4FF	8B	4d#	4b	4ff#
.	.	8A	.	.	.
=9	=9	=9	=9	=9	=9
-VIIb	4BB-	4G#	4e	4b	4ee
#viob	4AA	4F#	4f#	4a	4dd#
-VII	4BB-	4E	4B	4g#	8ee
.	.	.	.	.	8dd
i	4CC	8F#	4A	8a	4cc#
.	.	8E	.	8g#	.
=10	=10	=10	=10	=10	=10
VI7	4AA-	4D	4A	4f#	4cc#
-VII	4BB-	4E	8e	4g#	4b
.	.	.	8d	.	.
III;	4EE-;	4A;	4c#;	4e;	4a;
Ib	4CC	4A#	4f#	4f#	4cc#
=11	=11	=11	=11	=11	=11
iv	4FF	4B	4f#	4b	4dd
V7	4GG	4c#	4e#	8a	8cc#
.	.	.	.	8g#	8b
VI	4AA-	8d	8f#	4f#	4a
.	.	8c#	8e	.	.
iv	4FF	4B	4d	8g#	4b
.	.	.	.	8f#	.
=12	=12	=12	=12	=12	=12
ic	4CC	4c#	4c#	8e#	4a
.	.	.	.	8f#	.
V	4GG	4C#	8c#	8f#	4g#
.	.	.	8B	8e#	.
I;	4CC;	4F#;	4A#;	4c#;	4f#;
==	==	==	==	==	==
*-	*-	*-	*-	*-	*-
!!chor2scor: -l 2 -s 0.6 -o %b.pmx
!!!YEC: Copyright 1994, David Huron
!!!YEC: Changes/Additions 2001 by Craig Stuart Sapp
!!!YEN: United States of America
!!!SMA: 371 Bach Chorales, edited by Ludwig Erk, C.F. Peters
!!!PDT: 1850, 1865
!!!ONB: Harmony and Root analysis done manually
